X:213
%%topspace -10
T:Grandfather's Clock
M:4/4
L:1/4
K:G
D | "G"G2FG | "D"A2GA | "G"B2cB | "C"E2AA | "G"G2GG | "D"F2EF | "G"G4- | G2DD | 
"G"G2FG | "D"A2GA | "G"B2cB | "C"E2AA | "G"G2GG | "D"F2EF | "G"G4- | G2Bc ||
"G"e2BA | G2FG | "D7"AGFE | D2Bc | "G"d2BA | "Em"G2FG | "A7"A4- | "D7"A2 DD | 
"G"Gzzz | "D"Azzz | "G"BBcB | "C"E2AA | "G"G2G2 | "D7"F2EF | "G"D4- | G2DD ||
"G"G2DD | EDD2 | B,DD2 | B,DD2 | G2DD | EDD2 | B,DD2 | B,DD2 | 
"G"Gzzz | "D"Azzz | "G"BBcB | "C"E2AA | "G"G2G2 | "D7"F2EF | "G"D4- | G3 |]

